X:1
T:Through the Valley and the Shadow
T:Through the Valley and the Shadow
T:Ira David Sankey
T:Frances Jane (Fanny) Crosby, 1887
T:Public Domain Courtesy of the Cyber Hymnal™
T:Public Domain Courtesy of the Cyber Hymnal™
C:Ira David Sankey
Z:Public Domain
Z:Courtesy of the Cyber Hymnal™
%%score ( 1 2 ) ( 3 4 )
L:1/8
Q:1/4=100
M:4/4
K:F
V:1 treble 
V:2 treble 
V:3 bass 
V:4 bass 
V:1
 C>C | [CF]2 [CF]>[CF] [CF][CE][CF][EG] | (A3 B) [FA]2 [FA][FB] | %3
w: 1.~I must|walk thro’ the val- ley and the|sha- * dow, But I’ll|
w: 2.~When I|walk thro’ the val- ley and the|sha- * dow, All the|
w: 3.~Tho’ I|walk thro’ the val- ley and the|sha- * dow, Yet the|
w: 4.~I shall|walk thro’ the val- ley and the|sha- * dow, I shall|
 [Fc][Fc][Fc][Ac] [GB][GB] [FA]>[FA] | [EG]4 z2 C>C | [CF]2 [CF]>[CF] [CF][CE][CF][EG] | %6
w: jour- ney in a lov- ing Sav- ior’s|care; He hath|said He will ne- ver, ne- ver|
w: wea- ry days of toil- ing will be|o’er; For the|strong arms of Je- sus will en-|
w: glo- ry of the dawn- ing I shall|see; I shall|join in the an- thems o- ver|
w: fol- low where my Lord has gone be-|fore; Thro’ the|mists of the val- ley He will|
 (A3 B) !fermata![Fc]2 F[FG] | [FA]2 [FB]>[FB] [FA]<[FA] [EG]2 | F6 ||"^Refrain" [Fc]>[Fc] | %10
w: leave * me, With His|staff He will com- fort me|there.||
w: fold * me, And with|Him I shall sor- row no|more.||
w: Jor- * dan, Where the|loved ones are wait- ing for|me.||
w: lead * me, Till I|rest on the ev- er- green|shore.||
 [Fc]4 [FA]2 [Fc]>[Fc] | [Fd]4 [DG]2 [DG][^FA] | [GB][GB][GB][FB] [EB]<[Ed] [Fc]>[GB] | [FA]6 C>C | %14
w: ||||
w: ||||
w: ||||
w: ||||
 [CF]2 [CF]>[CF] [CF][CE][CF][EG] | (A3 B) !fermata![Fc]2 F[FG] | [FA]2 [FB]>[FB] [FA]<[FA] [EG]2 | %17
w: |||
w: |||
w: |||
w: |||
 F6 |] %18
w: |
w: |
w: |
w: |
V:2
 C>C | x8 | F4 x4 | x8 | x6 C>C | x8 | F4 F x3 | x8 | F6 || x2 | x8 | x8 | x8 | x6 C>C | x8 | %15
 F4 F x3 | x8 | F6 |] %18
V:3
 [F,A,]>[F,A,] | [F,A,]2 [F,A,]>[F,A,] [F,A,][C,G,][A,,C][C,C] | (C3 D) [F,C]2 F,[F,G,] | %3
w: ~ ~|~ ~ ~ ~ ~ ~ ~|~ * ~ ~ ~|
 [F,A,][F,A,][F,A,][F,C] [E,C][E,C] [F,C]>[F,C] | [C,C]4 z2 [F,A,]>[F,A,] | %5
w: ~ ~ ~ ~ ~ ~ ~ ~|~ ~ ~|
 [F,A,]2 [F,A,]>[F,A,] [F,A,][B,C][A,C][G,C] | (C3 B,) !fermata![F,A,]2 [A,,C][B,,D] | %7
w: ~ ~ ~ ~ ~ ~ ~|~ * ~ ~ ~|
 [C,C]2 [C,D]>[C,C] [C,B,]<[C,C] [C,B,]2 | [F,A,]6 || [F,A,]>[F,A,] | %10
w: ~ ~ ~ ~ ~ ~|~|Thro’ the|
 [F,A,]4 [F,C]2 [F,A,]>[F,A,] | [B,,B,]4 [B,,B,]2 B,[A,D] | %12
w: val- ley, thro’ the|val- ley, Thro’ the|
 [G,D][F,D][E,C][D,C] [C,C]<[C,B,] [C,A,]>[C,C] | [F,C]6 [F,A,]>[F,A,] | %14
w: val- ley and the sha- dow I must|go; But the|
 [F,A,]2 [F,A,]>[F,A,] [F,A,][B,C][A,C][G,C] | (C3 B,) !fermata![F,A,]2 [A,,C][B,,D] | %16
w: dark waves of Jor- dan will not|harm * me, There is|
 [C,C]2 [C,D]>[C,C] [C,B,]<[C,C] [C,B,]2 | [F,A,]6 |] %18
w: peace in the val- ley, I|know.|
V:4
 x2 | x8 | F,4 F, x3 | x8 | x8 | x8 | F,4 x4 | x8 | x6 || x2 | x8 | x6 B, x | x8 | x8 | x8 | %15
 F,4 x4 | x8 | x6 |] %18

